unum/images/web-icon-unum.svg

<?xml version="1.0" encoding="UTF-8"?>
<svg width="72px" height="74px" viewBox="0 0 72 74" version="1.1" xmlns="http://www.w3.org/2000/svg" xmlns:xlink="http://www.w3.org/1999/xlink">
    <!-- Generator: Sketch 43.2 (39069) - http://www.bohemiancoding.com/sketch -->
    <title>web-icon</title>
    <desc>Created with Sketch.</desc>
    <defs></defs>
    <g id="Pages" stroke="none" stroke-width="1" fill="none" fill-rule="evenodd">
        <g id="Web" transform="translate(-574.000000, -192.000000)" fill="#D6D6D9">
            <g id="Hero-Banner" transform="translate(-29.000000, -25.000000)">
                <g id="Group-36" transform="translate(254.000000, 217.000000)">
                    <g id="web-icon" transform="translate(349.000000, 0.000000)">
                        <g id="Group-3">
                            <path d="M66.9629,63.5068 C66.9629,66.5448 64.4999,69.0078 61.4619,69.0078 L10.4859,69.0078 C7.4519,69.0078 4.9919,66.5478 4.9919,63.5138 L4.9919,16.3438 L66.9629,16.3438 L66.9629,63.5068 Z M10.3049,8.8138 L10.3679,8.6538 C10.4109,8.5218 10.4609,8.3928 10.5229,8.2688 C10.5669,8.1778 10.6109,8.0898 10.6649,8.0048 C10.7419,7.8838 10.8309,7.7738 10.9239,7.6658 C11.0129,7.5648 11.1049,7.4728 11.2069,7.3848 C11.3139,7.2908 11.4229,7.2028 11.5439,7.1268 C11.6289,7.0718 11.7169,7.0278 11.8079,6.9838 C11.9319,6.9218 12.0599,6.8718 12.1929,6.8288 L12.3539,6.7658 L12.4229,6.7578 C12.6289,6.7108 12.8399,6.6808 13.0599,6.6808 L13.1009,6.6848 L13.2449,6.6988 C13.4239,6.7108 13.5979,6.7358 13.7669,6.7798 L13.9699,6.8438 C14.1179,6.8938 14.2589,6.9548 14.3949,7.0278 L14.5649,7.1208 C14.7459,7.2348 14.9169,7.3608 15.0669,7.5108 L15.0689,7.5138 C15.2189,7.6638 15.3459,7.8348 15.4599,8.0158 L15.5519,8.1868 C15.6259,8.3218 15.6869,8.4628 15.7369,8.6108 L15.7999,8.8138 C15.8439,8.9828 15.8699,9.1558 15.8809,9.3358 L15.8959,9.4808 L15.8999,9.5218 C15.8999,9.7408 15.8699,9.9518 15.8219,10.1568 L15.8149,10.2278 L15.7509,10.3868 C15.7079,10.5208 15.6589,10.6498 15.5969,10.7738 C15.5529,10.8638 15.5079,10.9508 15.4539,11.0368 C15.3779,11.1568 15.2889,11.2668 15.1959,11.3738 C15.1079,11.4758 15.0159,11.5688 14.9139,11.6558 C14.8069,11.7498 14.6959,11.8388 14.5759,11.9158 C14.4909,11.9698 14.4029,12.0138 14.3129,12.0588 C14.1889,12.1198 14.0599,12.1698 13.9259,12.2128 L13.7669,12.2768 L13.6969,12.2838 C13.4909,12.3308 13.2789,12.3608 13.0599,12.3608 L13.0189,12.3578 L12.8759,12.3428 C12.6959,12.3308 12.5219,12.3058 12.3519,12.2618 L12.1499,12.1988 C12.0019,12.1488 11.8609,12.0868 11.7249,12.0138 L11.5539,11.9208 C11.1919,11.6938 10.8869,11.3888 10.6599,11.0268 L10.5669,10.8558 C10.4939,10.7198 10.4319,10.5788 10.3809,10.4308 L10.3189,10.2288 C10.2749,10.0598 10.2499,9.8848 10.2379,9.7048 L10.2229,9.5618 L10.2189,9.5218 C10.2189,9.3008 10.2499,9.0898 10.2969,8.8838 L10.3049,8.8138 Z M19.4159,8.8148 L19.4799,8.6548 C19.5229,8.5218 19.5719,8.3928 19.6339,8.2688 C19.6779,8.1778 19.7229,8.0908 19.7769,8.0048 C19.8539,7.8848 19.9419,7.7748 20.0359,7.6668 C20.1239,7.5658 20.2159,7.4738 20.3169,7.3858 C20.4249,7.2918 20.5349,7.2028 20.6559,7.1258 C20.7409,7.0718 20.8279,7.0278 20.9189,6.9838 C21.0429,6.9218 21.1719,6.8718 21.3049,6.8288 L21.4649,6.7658 L21.5349,6.7578 C21.7399,6.7108 21.9519,6.6808 22.1709,6.6808 L22.2119,6.6848 L22.3559,6.6988 C22.5359,6.7108 22.7099,6.7358 22.8789,6.7798 L23.0819,6.8428 C23.2299,6.8938 23.3709,6.9548 23.5069,7.0278 L23.6769,7.1208 C24.0389,7.3488 24.3439,7.6528 24.5719,8.0158 L24.6639,8.1858 C24.7369,8.3208 24.7989,8.4628 24.8489,8.6108 L24.9119,8.8138 C24.9559,8.9828 24.9819,9.1568 24.9929,9.3368 L25.0079,9.4808 L25.0119,9.5218 C25.0119,9.7408 24.9819,9.9518 24.9339,10.1568 L24.9269,10.2278 L24.8629,10.3878 C24.8199,10.5208 24.7699,10.6498 24.7089,10.7738 C24.6639,10.8638 24.6199,10.9518 24.5659,11.0368 C24.4889,11.1578 24.3999,11.2688 24.3069,11.3758 C24.2189,11.4768 24.1269,11.5688 24.0259,11.6558 C23.9189,11.7498 23.8079,11.8388 23.6869,11.9158 C23.6019,11.9698 23.5149,12.0138 23.4239,12.0588 C23.2999,12.1198 23.1709,12.1698 23.0379,12.2128 L22.8779,12.2768 L22.8079,12.2838 C22.6029,12.3308 22.3909,12.3608 22.1709,12.3608 L22.1299,12.3578 L21.9869,12.3428 C21.8069,12.3308 21.6319,12.3058 21.4629,12.2618 L21.2609,12.1988 C21.1129,12.1488 20.9719,12.0868 20.8359,12.0138 L20.6659,11.9208 C20.3039,11.6938 19.9989,11.3888 19.7709,11.0268 L19.6789,10.8568 C19.6059,10.7208 19.5439,10.5788 19.4939,10.4318 L19.4309,10.2288 C19.3869,10.0598 19.3609,9.8848 19.3499,9.7048 L19.3349,9.5618 L19.3309,9.5218 C19.3309,9.3018 19.3609,9.0898 19.4089,8.8838 L19.4159,8.8148 Z M28.5279,8.8148 L28.5919,8.6538 C28.6349,8.5218 28.6839,8.3928 28.7459,8.2688 C28.7899,8.1778 28.8349,8.0908 28.8889,8.0048 C28.9649,7.8848 29.0539,7.7748 29.1479,7.6668 C29.2349,7.5658 29.3279,7.4738 29.4289,7.3848 C29.5369,7.2918 29.6469,7.2028 29.7669,7.1268 C29.8529,7.0718 29.9399,7.0278 30.0309,6.9838 C30.1549,6.9218 30.2829,6.8728 30.4159,6.8298 L30.5769,6.7658 L30.6469,6.7578 C30.8519,6.7108 31.0639,6.6808 31.2829,6.6808 L31.3229,6.6848 L31.4689,6.6988 C31.6479,6.7108 31.8219,6.7358 31.9899,6.7798 L32.1929,6.8438 C32.3409,6.8938 32.4819,6.9548 32.6179,7.0278 L32.7889,7.1208 C32.9689,7.2348 33.1409,7.3618 33.2909,7.5128 L33.2919,7.5128 C33.4419,7.6628 33.5689,7.8338 33.6829,8.0158 L33.7759,8.1868 C33.8489,8.3218 33.9109,8.4628 33.9609,8.6108 L34.0239,8.8138 C34.0669,8.9828 34.0929,9.1568 34.1049,9.3368 L34.1199,9.4808 L34.1239,9.5218 C34.1239,9.7408 34.0929,9.9518 34.0459,10.1568 L34.0379,10.2278 L33.9749,10.3878 C33.9319,10.5208 33.8819,10.6498 33.8209,10.7738 C33.7759,10.8638 33.7319,10.9518 33.6769,11.0368 C33.6009,11.1568 33.5129,11.2678 33.4199,11.3738 C33.3309,11.4768 33.2379,11.5688 33.1369,11.6568 C33.0289,11.7498 32.9199,11.8388 32.7989,11.9148 C32.7139,11.9698 32.6259,12.0138 32.5349,12.0588 C32.4109,12.1198 32.2829,12.1698 32.1499,12.2128 L31.9899,12.2768 L31.9199,12.2838 C31.7139,12.3308 31.5029,12.3608 31.2829,12.3608 L31.2419,12.3578 L31.0989,12.3428 C30.9189,12.3308 30.7439,12.3058 30.5749,12.2618 L30.3729,12.1988 C30.2249,12.1488 30.0839,12.0868 29.9479,12.0138 L29.7769,11.9208 C29.5959,11.8078 29.4249,11.6798 29.2749,11.5288 C29.1239,11.3788 28.9969,11.2068 28.8829,11.0268 L28.7909,10.8568 C28.7179,10.7208 28.6559,10.5788 28.6049,10.4308 L28.5429,10.2288 C28.4989,10.0598 28.4729,9.8858 28.4619,9.7058 L28.4469,9.5618 L28.4419,9.5218 C28.4419,9.3018 28.4729,9.0898 28.5199,8.8848 L28.5279,8.8148 Z M10.4859,0.3618 C4.6939,0.3618 -9.99999993e-05,5.0568 -9.99999993e-05,10.8478 L-9.99999993e-05,16.3438 L-9.99999993e-05,63.5068 C-9.99999993e-05,69.0328 4.2899,73.5738 9.7129,73.9698 L38.3509,73.9998 L61.4669,73.9998 C67.2589,73.9998 71.9549,69.3048 71.9549,63.5118 L71.9549,16.3438 L71.9549,10.8498 C71.9549,5.0578 67.2589,0.3618 61.4669,0.3618 L10.4859,0.3618 Z" id="Fill-1"></path>
                        </g>
                        <path d="M32.176,32.572 L59.242,32.572 C59.889,32.572 60.418,32.043 60.418,31.396 L60.418,30.176 C60.418,29.529 59.889,29 59.242,29 L32.176,29 C31.53,29 31,29.529 31,30.176 L31,31.396 C31,32.043 31.53,32.572 32.176,32.572" id="Fill-4"></path>
                        <path d="M32.176,42.571 L59.242,42.571 C59.889,42.571 60.418,42.042 60.418,41.395 L60.418,40.175 C60.418,39.529 59.889,39 59.242,39 L32.176,39 C31.53,39 31,39.529 31,40.175 L31,41.395 C31,42.042 31.53,42.571 32.176,42.571" id="Fill-6"></path>
                        <path d="M32.176,52.571 L45.121,52.571 C45.768,52.571 46.297,52.042 46.297,51.395 L46.297,50.175 C46.297,49.529 45.768,49 45.121,49 L32.176,49 C31.53,49 31,49.529 31,50.175 L31,51.395 C31,52.042 31.53,52.571 32.176,52.571" id="Fill-8"></path>
                        <path d="M21.632,43.821 L11.79,43.821 C10.249,43.821 9,42.572 9,41.031 L9,31.79 C9,30.249 10.249,29 11.79,29 L21.632,29 C23.173,29 24.422,30.249 24.422,31.79 L24.422,41.031 C24.422,42.572 23.173,43.821 21.632,43.821" id="Fill-10"></path>
                    </g>
                </g>
            </g>
        </g>
    </g>
</svg>

<svg width="72" height="74" viewBox="0 0 72 74" xmlns="http://www.w3.org/2000/svg"><title>web-icon</title><g fill="#D6D6D9" fill-rule="evenodd"><path d="M66.963 63.507a5.501 5.501 0 0 1-5.501 5.5H10.486a5.494 5.494 0 0 1-5.494-5.493v-47.17h61.97v47.163zM10.305 8.814l.063-.16a2.79 2.79 0 0 1 .155-.385c.044-.091.088-.18.142-.264a2.948 2.948 0 0 1 .542-.62c.107-.094.216-.182.337-.258a2.4 2.4 0 0 1 .264-.143 2.74 2.74 0 0 1 .385-.155l.16-.063.07-.008c.206-.047.417-.077.637-.077l.04.004.145.014c.179.012.353.037.522.08l.203.065c.148.05.289.11.425.184l.17.093c.18.114.352.24.502.39l.002.003c.15.15.277.32.39.502l.093.17c.074.136.135.277.185.425l.063.203c.044.169.07.342.08.522l.016.145.004.04c0 .22-.03.43-.078.636l-.007.07-.064.16a2.712 2.712 0 0 1-.154.387c-.044.09-.09.177-.143.263a2.81 2.81 0 0 1-.258.337 2.59 2.59 0 0 1-.282.282 2.836 2.836 0 0 1-.338.26 2.904 2.904 0 0 1-.65.297l-.16.064-.07.007a2.855 2.855 0 0 1-.636.077l-.041-.003-.143-.015a2.833 2.833 0 0 1-.524-.081l-.202-.063a2.772 2.772 0 0 1-.425-.185l-.171-.093a2.827 2.827 0 0 1-.894-.894l-.093-.171a2.878 2.878 0 0 1-.186-.425l-.062-.202a2.82 2.82 0 0 1-.081-.524l-.015-.143-.004-.04c0-.221.03-.432.078-.638l.008-.07zm9.11 0l.065-.16c.043-.132.092-.261.154-.385.044-.091.089-.178.143-.264.077-.12.165-.23.259-.338a2.97 2.97 0 0 1 .62-.541c.085-.054.172-.098.263-.142.124-.062.253-.112.386-.155l.16-.063.07-.008c.205-.047.417-.077.636-.077l.04.004.145.014c.18.012.354.037.523.08l.203.064c.148.05.289.112.425.185l.17.093c.362.228.667.532.895.895l.092.17c.073.135.135.277.185.425l.063.203c.044.169.07.343.08.523l.016.144.004.04c0 .22-.03.43-.078.636l-.007.07-.064.16a2.875 2.875 0 0 1-.297.65 2.864 2.864 0 0 1-.26.339 2.75 2.75 0 0 1-.28.28 2.768 2.768 0 0 1-.34.26 2.875 2.875 0 0 1-.649.297l-.16.064-.07.007a2.84 2.84 0 0 1-.636.077l-.041-.003-.143-.015a2.82 2.82 0 0 1-.524-.081l-.202-.063a2.772 2.772 0 0 1-.425-.185l-.17-.093a2.84 2.84 0 0 1-.895-.894l-.092-.17a2.816 2.816 0 0 1-.185-.425l-.063-.203a2.739 2.739 0 0 1-.081-.524l-.015-.143-.004-.04c0-.22.03-.432.078-.638l.007-.07zm9.113 0l.064-.16c.043-.132.092-.261.154-.385.044-.091.089-.178.143-.264.076-.12.165-.23.259-.338a2.902 2.902 0 0 1 .619-.54c.086-.055.173-.1.264-.143.124-.062.252-.111.385-.154l.16-.064.07-.008c.206-.047.418-.077.637-.077l.04.004.146.014c.179.012.353.037.52.08l.204.065c.148.05.289.11.425.184l.17.093c.18.114.353.24.503.392.15.15.278.32.392.503l.093.17c.073.136.135.277.185.425l.063.203c.043.169.069.343.08.523l.016.144.004.04c0 .22-.031.43-.078.636l-.008.07-.063.16a2.875 2.875 0 0 1-.154.387c-.045.09-.09.178-.144.263-.076.12-.164.23-.257.337a2.8 2.8 0 0 1-.283.283 2.82 2.82 0 0 1-.338.258 2.862 2.862 0 0 1-.649.298l-.16.064-.07.007a2.848 2.848 0 0 1-.637.077l-.041-.003-.143-.015a2.82 2.82 0 0 1-.524-.081l-.202-.063a2.772 2.772 0 0 1-.425-.185l-.171-.093a2.767 2.767 0 0 1-.502-.392 2.848 2.848 0 0 1-.392-.502l-.092-.17a2.89 2.89 0 0 1-.186-.426l-.062-.202a2.729 2.729 0 0 1-.081-.523l-.015-.144-.005-.04c0-.22.03-.432.078-.637l.008-.07zM10.486.363C4.694.362 0 5.057 0 10.848v52.659c0 5.526 4.29 10.067 9.713 10.463L38.35 74h23.116c5.792 0 10.488-4.695 10.488-10.488V10.85c0-5.792-4.696-10.488-10.488-10.488h-50.98z"/><path d="M32.176 32.572h27.066a1.18 1.18 0 0 0 1.176-1.176v-1.22A1.18 1.18 0 0 0 59.242 29H32.176A1.18 1.18 0 0 0 31 30.176v1.22c0 .647.53 1.176 1.176 1.176m0 9.999h27.066a1.18 1.18 0 0 0 1.176-1.176v-1.22c0-.646-.529-1.175-1.176-1.175H32.176A1.18 1.18 0 0 0 31 40.175v1.22c0 .647.53 1.176 1.176 1.176m0 10h12.945a1.18 1.18 0 0 0 1.176-1.176v-1.22c0-.646-.529-1.175-1.176-1.175H32.176A1.18 1.18 0 0 0 31 50.175v1.22c0 .647.53 1.176 1.176 1.176m-10.544-8.75H11.79A2.79 2.79 0 0 1 9 41.031V31.79A2.79 2.79 0 0 1 11.79 29h9.842a2.79 2.79 0 0 1 2.79 2.79v9.241a2.79 2.79 0 0 1-2.79 2.79"/></g></svg>
